X: 1
T:Larry O'Niel's -- Clog
M:C|
L:1/8
R:clog
B:Ryan's Mammoth Collection
N:156 927
Z:Contributed by Ray Davies,  ray:davies99.freeserve.co.uk
K:A
ue2|\
"1"a>"3"c'"1"a>"0"e c>ae>c | A>"4"ec>A E2c2 |\
 d>fB>d c>"4"eA>c | B>^AB>c B2e2 |
a>c'a>e c>ae>c | A>"4"ec>A E2c2 | d>fB>d c>"4"eA>c |\
 B>EG>B A2 H:|
|:uA2|\
G>EB>G E>GB>E | A>Ec>A E>Ac>A | d>Bc>A B>GA>F |\
 "4"e>^de>f e>d=d>B |
A>ce>c "1"a>"0"e"3"c'>"0"e | B>eg>e b>g"4"d'>"3"c' |\
 "2"b>"1"a"2"g>f e>dc>B | A2 c2 A2:|
